tipitek/img/icon-instagram.svg

<svg width="20" height="20" viewBox="0 0 20 20" fill="none" xmlns="http://www.w3.org/2000/svg">
<path d="M10.0011 0.399902C7.39208 0.399902 7.06465 0.411303 6.03993 0.457903C5.01721 0.504703 4.31912 0.666502 3.70829 0.903902C3.07644 1.1491 2.54047 1.4771 2.00649 2.0109C1.47211 2.5445 1.14388 3.0801 0.89771 3.7113C0.659542 4.3219 0.497428 5.0197 0.451395 6.0413C0.405563 7.0653 0.393555 7.3927 0.393555 9.9999C0.393555 12.6071 0.405163 12.9333 0.451596 13.9573C0.498629 14.9793 0.660543 15.6769 0.89791 16.2873C1.14348 16.9187 1.47171 17.4543 2.00589 17.9879C2.53967 18.5219 3.07564 18.8507 3.70709 19.0959C4.31832 19.3333 5.01661 19.4951 6.03913 19.5419C7.06385 19.5885 7.39108 19.5999 9.99992 19.5999C12.6092 19.5999 12.9356 19.5885 13.9603 19.5419C14.983 19.4951 15.6819 19.3333 16.2932 19.0959C16.9248 18.8507 17.46 18.5219 17.9938 17.9879C18.5281 17.4543 18.8564 16.9187 19.1025 16.2875C19.3387 15.6769 19.5008 14.9791 19.5488 13.9575C19.5949 12.9335 19.6069 12.6071 19.6069 9.9999C19.6069 7.3927 19.5949 7.0655 19.5488 6.0415C19.5008 5.0195 19.3387 4.3219 19.1025 3.7115C18.8564 3.0801 18.5281 2.5445 17.9938 2.0109C17.4594 1.4769 16.925 1.1489 16.2926 0.903902C15.6801 0.666502 14.9816 0.504703 13.9589 0.457903C12.9342 0.411303 12.608 0.399902 9.99812 0.399902H10.0011ZM9.13932 2.1299C9.3951 2.1295 9.6805 2.1299 10.0011 2.1299C12.5661 2.1299 12.8701 2.1391 13.8831 2.1851C14.8197 2.2279 15.3281 2.3843 15.6667 2.5157C16.115 2.6897 16.4347 2.8977 16.7707 3.2337C17.1069 3.5697 17.3151 3.8897 17.4896 4.3377C17.6211 4.6757 17.7778 5.1837 17.8204 6.1197C17.8665 7.1317 17.8765 7.4357 17.8765 9.9977C17.8765 12.5597 17.8665 12.8637 17.8204 13.8757C17.7776 14.8117 17.6211 15.3197 17.4896 15.6577C17.3155 16.1057 17.1069 16.4247 16.7707 16.7605C16.4345 17.0965 16.1152 17.3045 15.6667 17.4785C15.3285 17.6105 14.8197 17.7665 13.8831 17.8093C12.8703 17.8553 12.5661 17.8653 10.0011 17.8653C7.43591 17.8653 7.1319 17.8553 6.11919 17.8093C5.18253 17.7661 4.67417 17.6097 4.33533 17.4783C3.88702 17.3043 3.56679 17.0963 3.23055 16.7603C2.89432 16.4243 2.68617 16.1051 2.51165 15.6569C2.38015 15.3189 2.22344 14.8109 2.18081 13.8749C2.13478 12.8629 2.12557 12.5589 2.12557 9.9953C2.12557 7.4317 2.13478 7.1293 2.18081 6.1173C2.22364 5.1813 2.38015 4.6733 2.51165 4.3349C2.68577 3.8869 2.89432 3.5669 3.23055 3.2309C3.56679 2.8949 3.88702 2.6869 4.33533 2.5125C4.67397 2.3805 5.18253 2.2245 6.11919 2.1815C7.00541 2.1415 7.34886 2.1295 9.13932 2.1275V2.1299ZM15.1291 3.7239C14.4927 3.7239 13.9763 4.2393 13.9763 4.8755C13.9763 5.5115 14.4927 6.0275 15.1291 6.0275C15.7656 6.0275 16.2819 5.5115 16.2819 4.8755C16.2819 4.2395 15.7656 3.7239 15.1291 3.7239ZM10.0011 5.0699C7.2766 5.0699 5.06765 7.2773 5.06765 9.9999C5.06765 12.7225 7.2766 14.9289 10.0011 14.9289C12.7256 14.9289 14.9338 12.7225 14.9338 9.9999C14.9338 7.2773 12.7256 5.0699 10.0011 5.0699ZM10.0011 6.7999C11.7696 6.7999 13.2034 8.2325 13.2034 9.9999C13.2034 11.7671 11.7696 13.1999 10.0011 13.1999C8.23248 13.1999 6.79887 11.7671 6.79887 9.9999C6.79887 8.2325 8.23248 6.7999 10.0011 6.7999Z" fill="black"/>
</svg>

<svg width="20" height="20" fill="none" xmlns="http://www.w3.org/2000/svg"><path d="M10.001.4C7.392.4 7.065.41 6.04.458 5.017.505 4.32.667 3.708.904A4.704 4.704 0 0 0 2.006 2.01a4.712 4.712 0 0 0-1.108 1.7c-.238.61-.4 1.309-.447 2.33C.406 7.065.394 7.393.394 10s.011 2.933.058 3.957c.047 1.022.209 1.72.446 2.33a4.704 4.704 0 0 0 1.108 1.7c.534.535 1.07.864 1.701 1.109.611.237 1.31.4 2.332.446 1.025.046 1.352.058 3.96.058 2.61 0 2.937-.012 3.961-.058 1.023-.047 1.722-.209 2.333-.446a4.701 4.701 0 0 0 1.7-1.108 4.712 4.712 0 0 0 1.11-1.7c.236-.611.398-1.309.446-2.33.046-1.024.058-1.35.058-3.958 0-2.607-.012-2.934-.058-3.958-.048-1.022-.21-1.72-.447-2.33a4.711 4.711 0 0 0-1.108-1.701A4.696 4.696 0 0 0 16.293.904c-.613-.237-1.311-.4-2.334-.446C12.934.41 12.608.4 9.999.4H10zM9.14 2.13h.862c2.565 0 2.87.01 3.882.055.937.043 1.445.2 1.784.33.448.175.768.383 1.104.719.336.336.544.656.719 1.104.131.338.288.846.33 1.782.046 1.012.056 1.316.056 3.878 0 2.562-.01 2.866-.056 3.878-.042.936-.199 1.444-.33 1.782a2.968 2.968 0 0 1-.72 1.103 2.971 2.971 0 0 1-1.103.718c-.338.131-.847.288-1.784.33-1.013.046-1.317.056-3.882.056-2.565 0-2.87-.01-3.882-.056-.936-.043-1.445-.2-1.784-.33a2.976 2.976 0 0 1-1.104-.719 2.975 2.975 0 0 1-.72-1.103c-.13-.338-.288-.846-.33-1.782-.046-1.012-.055-1.316-.055-3.88 0-2.563.009-2.866.055-3.878.043-.936.2-1.444.33-1.782.175-.448.383-.768.72-1.104a2.982 2.982 0 0 1 1.104-.718c.339-.132.848-.288 1.784-.331.886-.04 1.23-.052 3.02-.054v.002zm5.99 1.594a1.152 1.152 0 1 0-.001 2.304 1.152 1.152 0 0 0 .001-2.304zM10.001 5.07A4.932 4.932 0 0 0 5.068 10 4.931 4.931 0 0 0 10 14.929a4.93 4.93 0 1 0 0-9.86zm0 1.73A3.201 3.201 0 1 1 6.8 10c0-1.768 1.433-3.2 3.202-3.2z" fill="#000"/></svg>
